icon-themes/elementary_svg/cmd/lc_browseview.svg

<svg height="24" width="24" xmlns="http://www.w3.org/2000/svg" xmlns:xlink="http://www.w3.org/1999/xlink"><linearGradient id="a"><stop offset="0"/><stop offset="1" stop-opacity="0"/></linearGradient><linearGradient id="b" gradientTransform="matrix(.40540511 0 0 .51351351 2.269687 -.32432)" gradientUnits="userSpaceOnUse" x1="23.99999" x2="23.99999" y1="6.473675" y2="41.526306"><stop offset="0" stop-color="#fff"/><stop offset="0" stop-color="#fff" stop-opacity=".235294"/><stop offset="1" stop-color="#fff" stop-opacity=".156863"/><stop offset="1" stop-color="#fff" stop-opacity=".392157"/></linearGradient><linearGradient id="c" gradientTransform="matrix(.48571543 0 0 .45629666 .342829 .348862)" gradientUnits="userSpaceOnUse" x1="25.132275" x2="25.132275" y1=".985206" y2="47.013336"><stop offset="0" stop-color="#f4f4f4"/><stop offset="1" stop-color="#dbdbdb"/></linearGradient><radialGradient id="d" cx="605.71429" cy="486.64789" gradientTransform="matrix(.01461737 0 0 .00999108 11.079513 17.910411)" gradientUnits="userSpaceOnUse" r="117.14286" xlink:href="#a"/><radialGradient id="e" cx="605.71429" cy="486.64789" gradientTransform="matrix(-.01204859 0 0 .0082353 10.761206 18.980564)" gradientUnits="userSpaceOnUse" r="117.14286" xlink:href="#a"/><linearGradient id="f" gradientTransform="matrix(.0352071 0 0 .0082353 -.724852 18.980547)" gradientUnits="userSpaceOnUse" x1="302.85715" x2="302.85715" y1="366.64789" y2="609.50507"><stop offset="0" stop-opacity="0"/><stop offset=".5"/><stop offset="1" stop-opacity="0"/></linearGradient><radialGradient id="g" cx="5.780028" cy="8.449767" gradientTransform="matrix(0 .89892574 -.95095622 -.00000002 16.035401 -6.014685)" gradientUnits="userSpaceOnUse" r="19.99999"><stop offset="0" stop-color="#90dbec"/><stop offset=".26238" stop-color="#55c1ec"/><stop offset=".704952" stop-color="#3689e6"/><stop offset="1" stop-color="#2b63a0"/></radialGradient><radialGradient id="h" cx="-1.264577" cy="8.449769" fx=".666809" gradientTransform="matrix(0 1.4370175 -1.1315221 -.00000002 17.918287 -1.380598)" gradientUnits="userSpaceOnUse" r="19.99999"><stop offset="0" stop-color="#cdf87e"/><stop offset=".26238" stop-color="#a2e34f"/><stop offset=".66093999" stop-color="#68b723"/><stop offset="1" stop-color="#1d7e0d"/></radialGradient><linearGradient id="i" gradientTransform="matrix(.53899354 0 0 .53902447 -30.90246 -7.020941)" gradientUnits="userSpaceOnUse" x1="71.204407" x2="71.204407" y1="15.369057" y2="40.495617"><stop offset="0" stop-color="#fff"/><stop offset=".42447853" stop-color="#fff" stop-opacity=".235294"/><stop offset=".82089913" stop-color="#fff" stop-opacity=".156863"/><stop offset="1" stop-color="#fff" stop-opacity=".392157"/></linearGradient><path d="m3.500001 22h16.999998v2h-16.999998z" fill="url(#f)" opacity=".15"/><path d="m3.4999999 22.000085v1.999891c-.6204724.0038-1.4999999-.448075-1.4999999-1.000075 0-.551999.6924-.999816 1.4999999-.999816z" fill="url(#e)" opacity=".15"/><path d="m19.888822 21.5737v2.426271c.752758.0046 1.819803-.543605 1.819803-1.213293 0-.669686-.840023-1.212978-1.819803-1.212978z" fill="url(#d)" opacity=".15" stroke-width="1.213202"/><path d="m3.4999601 1.4999569c3.8955809 0 17.0000589.00136 17.0000589.00136l.000021 20.9987161s-11.3333862 0-17.0000799 0c0-7.000018 0-14.000035 0-21.0000538z" fill="url(#c)"/><path d="m19.5 21.5h-15.0000004v-19h15.0000004z" fill="none" stroke="url(#b)" stroke-linecap="round"/><path d="m3.4999601 1.4999569c3.8955809 0 17.0000589.00136 17.0000589.00136l.000021 20.9987161s-11.3333862 0-17.0000799 0c0-7.000018 0-14.000035 0-21.0000538z" fill="none" opacity=".3" stroke="#000" stroke-linejoin="round" stroke-width=".999922"/><g transform="matrix(.88968133 0 0 .88966173 9.131766 8.975664)"><path d="m8.000001.49999997c-4.138241 0-7.50000103 3.36175853-7.50000103 7.49999993 0 4.1382421 3.36176003 7.5000011 7.50000103 7.5000001 4.138239 0 7.500003-3.361758 7.499999-7.5000001 0-4.1382414-3.36176-7.49999993-7.499999-7.49999993z" fill="url(#g)"/><path d="m8.034298.608011-.891768.103226-1.01753.252331c.08605-.02856.173793-.05293.262957-.08029l-.0686-.114695c-.213841.04313-.422108.08909-.628811.149104-.01039.003-.0239.0084-.0343.01147-.242771.07159-.477307.14717-.708841.240861l-.02286.02294-.04574.01147c-.05298.02206-.107734.04564-.160061.06882l-.102896.194982-.05716-.126165c-.04742.02232-.101778.04559-.148629.06882l.02286.217922-.251524.194982-.137195.3670262h.297256l.11433-.2408612.04574-.08029c.132672-.08899.265031-.189605.400153-.27527l.308689.09176c.204986.132108.412218.269525.617378.4014343l.297256-.2638003-.331555-.137634-.160061-.298209-.583079-.05735-.01143-.05735.251524.04588.137195-.137634.320122-.05735c.07451-.03438.153446-.06377.228659-.09176l-.205793.172043.708841.458783v.275269l-.27439.2637993.365854.6881735.251524-.126165.320122-.4587819c.442652-.1298181.828386-.2792324 1.246187-.4587829l-.02287.1720437.217226.126165.365854-.2293907-.182928-.206452-.251524.137634-.08003-.02294c.0181-.0078.03902-.01499.05717-.02294l.365853-.894626-.800305-.298209c-.0105-.000226-.01236.000186-.02286 0zm-3.578505 1.341938.308688.1949836h.240092v-.2293916l-.297257-.126165zm-.914635 0-.125762.3326179s-.226887.032066-.285823.045881c-.75266.6579061-2.276263 2.0787135-2.629573 4.7598658.01399.062161.251524.4243742.251524.4243742l.571646.3211476.58308.1491042.240091.2867385.38872.27527.217225-.034409.160061.068818v.057346l-.205792.5505385-.171494.2408609.04574.1146951-.125762.4473135.480183.8487468.503049.401435.217225.309678-.02286.619356.160061.344087-.160061.676704c-.0026.0085-.0105.03495 0 .06882.02119.06778.883017.520135.9375.481722.01336-.0096.0108-.01417.02286-.02294-.304279-.543165-.480182-1.167558-.480182-1.835129 0-1.057392.442689-2.0007686 1.143292-2.683877l-.205792-.3899677-.411586-.091756-.217226-.5505393-.537347.057346-.46875-.3211476-.503049.4129035v.057346c-.149313-.040881-.324364-.048624-.457317-.126165l-.102896-.2982084v-.3211476l-.342988.034409c.02744-.2060897.06383-.4133029.09146-.6193561h-.19436l-.205793.2408609-.182927.080287-.27439-.1491042-.02287-.3211476.05717-.3440869.400152-.3096777h.331555l.0686-.1720419.400153.091757.308688.367026.04574-.6078868.525915-.4014344.182926-.4358427.400152-.1605741.205793-.2982085.491617-.080287.262957-.3555567h-.754574l.46875-.2064518h.331555l.423019-.1376342.08003.3784951.182927-.2638-.205793-.1376343.04574-.1605741-.171494-.1491043-.182927-.045881.04574-.1949825-.137195-.2637993-.331555.126165.05716-.2408609-.388719-.2064517-.297257.4931902.0343.1835134-.308708.1261664-.182927.3784952-.09146-.355556-.514481-.2064518-.09146-.2638.697409-.3784959.308689-.2752692.02286-.3211476-.171494-.091756zm7.065549.1376353-.05717.034409v.1949826l-.537347.3211476.102897.481721.308688-.2064517.205792.2064517.217227.1261658.148628-.3555567-.08003-.2179217.04574-.080287c-.105652-.1800175-.225348-.342791-.354425-.5046606zm-1.429116.4587826v.2064518l.114329.1146951v.3096784l-.0686.3899651.342988-.057346.251524-.2408608-.228655-.1949826c-.07233-.1826861-.13814-.3523772-.228659-.5275993zm-.297256.4014343-.205793.057346.05716.3670252.262958-.1376343zm1.577744.2064518-.19436.137635.08003.2064518h-.308689l-.171494.2638-.205793.229391-.377287.080287.217226.2064525.05716.2064517h-.274391l-.365853.1949826v.5505392h.160061l.160061.1605735.354421-.1605735.137195-.3440867.251524-.1491042.05716-.1146959.423019-.1146958.228658.2523301.262958.1261658-.148628.2752692.217225-.057346.114329-.2752693-.285823-.3211475h.125762l.285823.2293916.05717.2982084.137195.1491043c.04883-.2389908.08003-.4921738.08003-.7455211-.02755-.430116-.132451-.8364192-.285822-1.227245l-.354421.2867385-.434451-.1032259zm-.19436 2.1906857-.537347.057346-.468751.1146951c-.269417.2897237-.556737.5937337-.811737.8946252l-.297256.6881738.137195.1491042-.251525.3670259.217226.4817218c1.369154-.1440032 2.52152-1.0486291 3.018293-2.2824425l-.11433.1146957-.525915-.4931908z" fill="#13355a" opacity=".5"/><path d="m7.962844.50077c1.908938 0 3.63772 1.767246 3.768578 3.8459824.000002 2.0159762-1.674261 3.3292636-3.649662 3.3292636l-.18843.012022c-3.254441.076745-4.659069 2.542388-4.431421 4.47395.292623 2.482863 2.474402 3.455836 4.500935 3.326095v.01202c.06291.0016.125143 0 .18843 0 4.054396 0 7.348728-3.361992 7.348726-7.4996621 0-4.1376711-3.29433-7.4996639-7.348726-7.4996639-.06329 0-.125523-.0016-.18843-.000009z" fill="url(#h)"/><g fill="none"><path d="m7.999999.47597c-4.13824 0-7.499999 3.372529-7.499999 7.5240288 0 4.1515012 3.361759 7.5240322 7.499999 7.5240302 4.138241 0 7.500003-3.372529 7.500001-7.5240302 0-4.1514998-3.36176-7.5240288-7.500001-7.5240288zm-.973647.0059c2.16393 0 4.148453 1.7080047 4.29679 3.7978846.000003 2.0267854-1.599159 2.9383891-3.838431 2.9383891l-.21539.011472c-2.7303986.1255161-4.268066 2.5057673-4.268066 4.5208833 0 1.155454.384439 1.919508 1.230269 2.799519" opacity=".596"/><path d="m14.5 7.9999999c0 3.5900581-2.910151 6.5003721-6.5000038 6.5003721-3.5898458 0-6.4999962-2.910314-6.4999962-6.5003721 0-3.5900565 2.9101504-6.5003718 6.4999962-6.5003718 3.5898528 0 6.5000038 2.9103153 6.5000038 6.5003718zm-2.623359-5.2695356c.42018.6551191.350055 1.0108099.406621 1.8077343.000003 1.9414475-1.93365 3.8290708-4.0786365 3.8290708l-.206321.010989c-2.1063282.096827-4.0107782.9734055-4.0107782 3.3174576 0 .717018.1545487 1.276689.4836861 1.811147" opacity=".5" stroke="url(#i)" stroke-linecap="round" stroke-linejoin="round"/></g></g><path d="m16.249216 9.3990567c-3.681715 0-6.6726079 3.0004363-6.6726079 6.6938993 0 3.693464 2.9908929 6.693903 6.6726079 6.693902 3.681715 0 6.672611-3.000438 6.672609-6.693902 0-3.693463-2.990894-6.6938993-6.672609-6.6938993zm-.866235.00534c1.925208 0 3.6908 1.5195593 3.822772 3.3788633.000003 1.803168-1.422741 2.614195-3.41498 2.614195l-.191627.01019c-2.429186.111663-3.797218 2.229304-3.797218 4.022093 0 1.027971.342027 1.707728 1.094547 2.490647" fill="none" opacity=".3" stroke="#002728" stroke-width=".889675"/></svg>

<?xml version="1.0" encoding="UTF-8" standalone="no"?>
<svg
   xmlns:dc="http://purl.org/dc/elements/1.1/"
   xmlns:cc="http://creativecommons.org/ns#"
   xmlns:rdf="http://www.w3.org/1999/02/22-rdf-syntax-ns#"
   xmlns:svg="http://www.w3.org/2000/svg"
   xmlns="http://www.w3.org/2000/svg"
   xmlns:xlink="http://www.w3.org/1999/xlink"
   xmlns:sodipodi="http://sodipodi.sourceforge.net/DTD/sodipodi-0.dtd"
   xmlns:inkscape="http://www.inkscape.org/namespaces/inkscape"
   height="24"
   width="24"
   version="1.1"
   id="svg81"
   sodipodi:docname="lc_browseview.svg"
   inkscape:version="0.92.3 (unknown)"
   inkscape:export-filename="/home/rizmut/Dokumen/Rizmut/Github/libreoffice-style-elementary/images_elementary/cmd/lc_browseview.png"
   inkscape:export-xdpi="96"
   inkscape:export-ydpi="96">
  <metadata
     id="metadata87">
    <rdf:RDF>
      <cc:Work
         rdf:about="">
        <dc:format>image/svg+xml</dc:format>
        <dc:type
           rdf:resource="http://purl.org/dc/dcmitype/StillImage" />
      </cc:Work>
    </rdf:RDF>
  </metadata>
  <defs
     id="defs85" />
  <sodipodi:namedview
     pagecolor="#ffffff"
     bordercolor="#666666"
     borderopacity="1"
     objecttolerance="10"
     gridtolerance="10"
     guidetolerance="10"
     inkscape:pageopacity="0"
     inkscape:pageshadow="2"
     inkscape:window-width="1366"
     inkscape:window-height="706"
     id="namedview83"
     showgrid="false"
     inkscape:snap-global="false"
     inkscape:zoom="19.666667"
     inkscape:cx="12.842851"
     inkscape:cy="14.536648"
     inkscape:window-x="0"
     inkscape:window-y="0"
     inkscape:window-maximized="1"
     inkscape:current-layer="svg81" />
  <linearGradient
     id="a">
    <stop
       offset="0"
       id="stop2" />
    <stop
       offset="1"
       stop-opacity="0"
       id="stop4" />
  </linearGradient>
  <linearGradient
     id="b"
     gradientTransform="matrix(.40540511 0 0 .51351351 2.269687 -.32432)"
     gradientUnits="userSpaceOnUse"
     x1="23.99999"
     x2="23.99999"
     y1="6.473675"
     y2="41.526306">
    <stop
       offset="0"
       stop-color="#fff"
       id="stop7" />
    <stop
       offset="0"
       stop-color="#fff"
       stop-opacity=".235294"
       id="stop9" />
    <stop
       offset="1"
       stop-color="#fff"
       stop-opacity=".156863"
       id="stop11" />
    <stop
       offset="1"
       stop-color="#fff"
       stop-opacity=".392157"
       id="stop13" />
  </linearGradient>
  <linearGradient
     id="c"
     gradientTransform="matrix(.48571543 0 0 .45629666 .342829 .348862)"
     gradientUnits="userSpaceOnUse"
     x1="25.132275"
     x2="25.132275"
     y1=".985206"
     y2="47.013336">
    <stop
       offset="0"
       stop-color="#f4f4f4"
       id="stop16" />
    <stop
       offset="1"
       stop-color="#dbdbdb"
       id="stop18" />
  </linearGradient>
  <radialGradient
     id="d"
     cx="605.71429"
     cy="486.64789"
     gradientTransform="matrix(0.01461737,0,0,0.00999108,11.079513,17.910411)"
     gradientUnits="userSpaceOnUse"
     r="117.14286"
     xlink:href="#a" />
  <radialGradient
     id="e"
     cx="605.71429"
     cy="486.64789"
     gradientTransform="matrix(-.01204859 0 0 .0082353 10.761206 18.980564)"
     gradientUnits="userSpaceOnUse"
     r="117.14286"
     xlink:href="#a" />
  <linearGradient
     id="f"
     gradientTransform="matrix(.0352071 0 0 .0082353 -.724852 18.980547)"
     gradientUnits="userSpaceOnUse"
     x1="302.85715"
     x2="302.85715"
     y1="366.64789"
     y2="609.50507">
    <stop
       offset="0"
       stop-opacity="0"
       id="stop23" />
    <stop
       offset=".5"
       id="stop25" />
    <stop
       offset="1"
       stop-opacity="0"
       id="stop27" />
  </linearGradient>
  <radialGradient
     id="g"
     cx="5.780028"
     cy="8.449767"
     gradientTransform="matrix(0,0.89892574,-0.95095622,-2e-8,16.035401,-6.014685)"
     gradientUnits="userSpaceOnUse"
     r="19.99999">
    <stop
       offset="0"
       stop-color="#90dbec"
       id="stop30" />
    <stop
       offset=".26238"
       stop-color="#55c1ec"
       id="stop32" />
    <stop
       offset=".704952"
       stop-color="#3689e6"
       id="stop34" />
    <stop
       offset="1"
       stop-color="#2b63a0"
       id="stop36" />
  </radialGradient>
  <radialGradient
     id="h"
     cx="-1.264577"
     cy="8.449769"
     fx=".666809"
     gradientTransform="matrix(0,1.4370175,-1.1315221,-2e-8,17.918287,-1.380598)"
     gradientUnits="userSpaceOnUse"
     r="19.99999">
    <stop
       offset="0"
       stop-color="#cdf87e"
       id="stop39" />
    <stop
       offset=".26238"
       stop-color="#a2e34f"
       id="stop41" />
    <stop
       offset=".66093999"
       stop-color="#68b723"
       id="stop43" />
    <stop
       offset="1"
       stop-color="#1d7e0d"
       id="stop45" />
  </radialGradient>
  <linearGradient
     id="i"
     gradientTransform="matrix(0.53899354,0,0,0.53902447,-30.90246,-7.020941)"
     gradientUnits="userSpaceOnUse"
     x1="71.204407"
     x2="71.204407"
     y1="15.369057"
     y2="40.495617">
    <stop
       offset="0"
       stop-color="#fff"
       id="stop48" />
    <stop
       offset=".42447853"
       stop-color="#fff"
       stop-opacity=".235294"
       id="stop50" />
    <stop
       offset=".82089913"
       stop-color="#fff"
       stop-opacity=".156863"
       id="stop52" />
    <stop
       offset="1"
       stop-color="#fff"
       stop-opacity=".392157"
       id="stop54" />
  </linearGradient>
  <path
     d="m3.500001 22h16.999998v2h-16.999998z"
     fill="url(#f)"
     opacity=".15"
     id="path57" />
  <path
     d="m3.4999999 22.000085v1.999891c-.6204724.0038-1.4999999-.448075-1.4999999-1.000075 0-.551999.6924-.999816 1.4999999-.999816z"
     fill="url(#e)"
     opacity=".15"
     id="path59" />
  <path
     d="m 19.888822,21.5737 v 2.426271 c 0.752758,0.0046 1.819803,-0.543605 1.819803,-1.213293 0,-0.669686 -0.840023,-1.212978 -1.819803,-1.212978 z"
     id="path61"
     style="opacity:0.15;fill:url(#d);stroke-width:1.21320188"
     inkscape:connector-curvature="0" />
  <path
     d="m3.4999601 1.4999569c3.8955809 0 17.0000589.00136 17.0000589.00136l.000021 20.9987161s-11.3333862 0-17.0000799 0c0-7.000018 0-14.000035 0-21.0000538z"
     fill="url(#c)"
     id="path63" />
  <path
     d="m19.5 21.5h-15.0000004v-19h15.0000004z"
     fill="none"
     stroke="url(#b)"
     stroke-linecap="round"
     id="path65" />
  <path
     d="m3.4999601 1.4999569c3.8955809 0 17.0000589.00136 17.0000589.00136l.000021 20.9987161s-11.3333862 0-17.0000799 0c0-7.000018 0-14.000035 0-21.0000538z"
     fill="none"
     opacity=".3"
     stroke="#000"
     stroke-linejoin="round"
     stroke-width=".999922"
     id="path67" />
  <g
     transform="matrix(0.88968133,0,0,0.88966173,9.1317658,8.9756638)"
     id="g79">
    <path
       d="m 8.000001,0.49999997 c -4.138241,0 -7.50000103,3.36175853 -7.50000103,7.49999993 C 0.49999997,12.138242 3.86176,15.500001 8.000001,15.5 12.13824,15.5 15.500004,12.138242 15.5,7.9999999 15.5,3.8617585 12.13824,0.49999997 8.000001,0.49999997 Z"
       id="path69"
       style="fill:url(#g)"
       inkscape:connector-curvature="0" />
    <path
       d="M 8.034298,0.608011 7.14253,0.711237 6.125,0.963568 c 0.08605,-0.02856 0.173793,-0.05293 0.262957,-0.08029 l -0.0686,-0.114695 c -0.213841,0.04313 -0.422108,0.08909 -0.628811,0.149104 -0.01039,0.003 -0.0239,0.0084 -0.0343,0.01147 -0.242771,0.07159 -0.477307,0.14717 -0.708841,0.240861 l -0.02286,0.02294 -0.04574,0.01147 c -0.05298,0.02206 -0.107734,0.04564 -0.160061,0.06882 L 4.615848,1.46823 4.558688,1.342065 C 4.511268,1.364385 4.45691,1.387655 4.410059,1.410885 L 4.432919,1.628807 4.181395,1.823789 4.0442,2.1908152 H 4.341456 L 4.455786,1.949954 4.501526,1.869664 C 4.634198,1.780674 4.766557,1.680059 4.901679,1.594394 l 0.308689,0.09176 C 5.415354,1.818262 5.622586,1.955679 5.827746,2.0875883 L 6.125002,1.823788 5.793447,1.686154 5.633386,1.387945 5.050307,1.330595 5.038877,1.273245 5.290401,1.319125 5.427596,1.181491 5.747718,1.124141 c 0.07451,-0.03438 0.153446,-0.06377 0.228659,-0.09176 L 5.770584,1.204424 6.479425,1.663207 V 1.938476 L 6.205035,2.2022753 6.570889,2.8904488 6.822413,2.7642838 7.142535,2.3055019 C 7.585187,2.1756838 7.970921,2.0262695 8.388722,1.846719 L 8.365852,2.0187627 8.583078,2.1449277 8.948932,1.915537 8.766004,1.709085 8.51448,1.846719 8.43445,1.823779 c 0.0181,-0.0078 0.03902,-0.01499 0.05717,-0.02294 L 8.857473,0.906213 8.057168,0.608004 c -0.0105,-2.26e-4 -0.01236,1.86e-4 -0.02286,0 z M 4.455793,1.949949 4.764481,2.1449326 H 5.004573 V 1.915541 L 4.707316,1.789376 Z m -0.914635,0 -0.125762,0.3326179 c 0,0 -0.226887,0.032066 -0.285823,0.045881 C 2.376913,2.986354 0.85331,4.4071614 0.5,7.0883137 0.51399,7.1504747 0.751524,7.5126879 0.751524,7.5126879 l 0.571646,0.3211476 0.58308,0.1491042 0.240091,0.2867385 0.38872,0.27527 0.217225,-0.034409 0.160061,0.068818 v 0.057346 l -0.205792,0.5505385 -0.171494,0.2408609 0.04574,0.1146951 -0.125762,0.4473135 0.480183,0.8487468 0.503049,0.401435 0.217225,0.309678 -0.02286,0.619356 0.160061,0.344087 -0.160061,0.676704 c -0.0026,0.0085 -0.0105,0.03495 0,0.06882 0.02119,0.06778 0.883017,0.520135 0.9375,0.481722 0.01336,-0.0096 0.0108,-0.01417 0.02286,-0.02294 -0.304279,-0.543165 -0.480182,-1.167558 -0.480182,-1.835129 0,-1.057392 0.442689,-2.0007686 1.143292,-2.683877 L 5.050314,8.8087463 4.638728,8.7169903 4.421502,8.166451 3.884155,8.223797 3.415405,7.9026494 2.912356,8.3155529 v 0.057346 C 2.763043,8.3320179 2.587992,8.3242749 2.455039,8.2467339 L 2.352143,7.9485255 V 7.6273779 L 2.009155,7.6617869 C 2.036595,7.4556972 2.072985,7.248484 2.100615,7.0424308 H 1.906255 L 1.700462,7.2832917 1.517535,7.3635787 1.243145,7.2144745 1.220275,6.8933269 1.277445,6.54924 1.677597,6.2395623 h 0.331555 l 0.0686,-0.1720419 0.400153,0.091757 0.308688,0.367026 L 2.832333,5.9184166 3.358248,5.5169822 3.541174,5.0811395 3.941326,4.9205654 4.147119,4.6223569 4.638736,4.5420699 4.901693,4.1865132 H 4.147119 L 4.615869,3.9800614 H 4.947424 L 5.370443,3.8424272 5.450473,4.2209223 5.6334,3.9571223 5.427607,3.819488 5.473347,3.6589139 5.301853,3.5098096 5.118926,3.4639286 5.164666,3.2689461 5.027471,3.0051468 4.695916,3.1313118 4.753076,2.8904509 4.364357,2.6839992 4.0671,3.1771894 4.1014,3.3607028 3.792692,3.4868692 3.609765,3.8653644 3.518305,3.5098084 3.003824,3.3033566 2.912364,3.0395566 3.609773,2.6610607 3.918462,2.3857915 3.941322,2.0646439 3.769828,1.9728879 Z m 7.065549,0.1376353 -0.05717,0.034409 v 0.1949826 l -0.537347,0.3211476 0.102897,0.481721 0.308688,-0.2064517 0.205792,0.2064517 0.217227,0.1261658 0.148628,-0.3555567 -0.08003,-0.2179217 0.04574,-0.080287 C 10.85548,2.4122274 10.735784,2.2494539 10.606707,2.0875843 Z M 9.177591,2.5463669 V 2.7528187 L 9.29192,2.8675138 V 3.1771922 L 9.22332,3.5671573 9.566308,3.5098113 9.817832,3.2689505 9.589177,3.0739679 C 9.516847,2.8912818 9.451037,2.7215907 9.360518,2.5463686 Z M 8.880335,2.9478012 8.674542,3.0051472 8.731702,3.3721724 8.99466,3.2345381 Z m 1.577744,0.2064518 -0.19436,0.137635 0.08003,0.2064518 H 10.03506 l -0.171494,0.2638 -0.205793,0.229391 -0.377287,0.080287 0.217226,0.2064525 0.05716,0.2064517 H 9.280481 L 8.914628,4.6797046 V 5.2302438 H 9.074689 L 9.23475,5.3908173 9.589171,5.2302438 9.726366,4.8861571 9.97789,4.7370529 10.03505,4.622357 10.458069,4.5076612 10.686727,4.7599913 10.949685,4.8861571 10.801057,5.1614263 11.018282,5.1040803 11.132611,4.828811 10.846788,4.5076635 h 0.125762 l 0.285823,0.2293916 0.05717,0.2982084 0.137195,0.1491043 c 0.04883,-0.2389908 0.08003,-0.4921738 0.08003,-0.7455211 -0.02755,-0.430116 -0.132451,-0.8364192 -0.285822,-1.227245 L 10.892525,3.4983402 10.458074,3.3951143 Z M 10.263719,5.3449387 9.726372,5.4022847 9.257621,5.5169798 C 8.988204,5.8067035 8.700884,6.1107135 8.445884,6.411605 L 8.148628,7.0997788 8.285823,7.248883 8.034298,7.6159089 8.251524,8.0976307 c 1.369154,-0.1440032 2.52152,-1.0486291 3.018293,-2.2824425 l -0.11433,0.1146957 -0.525915,-0.4931908 z"
       id="path71"
       inkscape:connector-curvature="0"
       style="opacity:0.5;fill:#13355a" />
    <path
       d="m 7.962844,0.50077 c 1.908938,0 3.63772,1.767246 3.768578,3.8459824 2e-6,2.0159762 -1.674261,3.3292636 -3.649662,3.3292636 L 7.89333,7.688038 c -3.254441,0.076745 -4.659069,2.542388 -4.431421,4.47395 0.292623,2.482863 2.474402,3.455836 4.500935,3.326095 v 0.01202 c 0.06291,0.0016 0.125143,0 0.18843,0 4.054396,0 7.348728,-3.361992 7.348726,-7.4996621 0,-4.1376711 -3.29433,-7.4996639 -7.348726,-7.4996639 -0.06329,0 -0.125523,-0.0016 -0.18843,-9e-6 z"
       id="path73"
       style="fill:url(#h)"
       inkscape:connector-curvature="0" />
    <path
       d="M 7.999999,0.47597 C 3.861759,0.47597 0.5,3.848499 0.5,7.9999988 0.5,12.1515 3.861759,15.524031 7.999999,15.524029 12.13824,15.524029 15.500002,12.1515 15.5,7.9999988 15.5,3.848499 12.13824,0.47597 7.999999,0.47597 Z m -0.973647,0.0059 c 2.16393,0 4.148453,1.7080047 4.29679,3.7978846 3e-6,2.0267854 -1.599159,2.9383891 -3.838431,2.9383891 l -0.21539,0.011472 C 4.5389224,7.3551318 3.001255,9.735383 3.001255,11.750499 c 0,1.155454 0.384439,1.919508 1.230269,2.799519"
       id="path75"
       inkscape:connector-curvature="0"
       style="opacity:0.59600004;fill:none" />
    <path
       d="M 14.5,7.9999999 C 14.5,11.590058 11.589849,14.500372 7.9999962,14.500372 4.4101504,14.500372 1.5,11.590058 1.5,7.9999999 1.5,4.4099434 4.4101504,1.4996281 7.9999962,1.4996281 11.589849,1.4996281 14.5,4.4099434 14.5,7.9999999 Z M 11.876641,2.7304643 c 0.42018,0.6551191 0.350055,1.0108099 0.406621,1.8077343 3e-6,1.9414475 -1.93365,3.8290708 -4.0786365,3.8290708 l -0.206321,0.010989 c -2.1063282,0.096827 -4.0107782,0.9734055 -4.0107782,3.3174576 0,0.717018 0.1545487,1.276689 0.4836861,1.811147"
       id="path77"
       style="opacity:0.5;fill:none;stroke:url(#i);stroke-linecap:round;stroke-linejoin:round"
       inkscape:connector-curvature="0" />
  </g>
  <path
     inkscape:connector-curvature="0"
     id="path3871"
     style="color:#000000;display:inline;overflow:visible;visibility:visible;opacity:0.3;fill:none;stroke:#002728;stroke-width:0.88967538;stroke-opacity:1;marker:none;enable-background:accumulate"
     d="m 16.249216,9.3990567 c -3.681715,0 -6.6726079,3.0004363 -6.6726079,6.6938993 0,3.693464 2.9908929,6.693903 6.6726079,6.693902 3.681715,0 6.672611,-3.000438 6.672609,-6.693902 0,-3.693463 -2.990894,-6.6938993 -6.672609,-6.6938993 z m -0.866235,0.00534 c 1.925208,0 3.6908,1.5195593 3.822772,3.3788633 3e-6,1.803168 -1.422741,2.614195 -3.41498,2.614195 l -0.191627,0.01019 c -2.429186,0.111663 -3.797218,2.229304 -3.797218,4.022093 0,1.027971 0.342027,1.707728 1.094547,2.490647" />
</svg>
